frontend/static/images/icons/telegram-white.svg

<svg width="43" height="39" viewBox="0 0 43 39" fill="none" xmlns="http://www.w3.org/2000/svg">
<path d="M37.0247 6.0402L5.25849 17.1503C3.09057 17.9401 3.10311 19.0369 4.86074 19.5261L13.0164 21.8336L31.8862 11.0354C32.7785 10.5431 33.5937 10.8079 32.9236 11.3474L17.6353 23.8616H17.6317L17.6353 23.8632L17.0727 31.4877C17.8969 31.4877 18.2606 31.1448 18.7229 30.7402L22.6842 27.2464L30.9241 32.7666C32.4434 33.5254 33.5346 33.1354 33.9126 31.4909L39.3217 8.37045C39.8753 6.35707 38.4742 5.44545 37.0247 6.0402V6.0402Z" fill="#FAFAFA"/>
</svg>

<svg width="43" height="39" fill="none" xmlns="http://www.w3.org/2000/svg"><path d="M37.025 6.04L5.258 17.15c-2.167.79-2.155 1.887-.397 2.376l8.155 2.308 18.87-10.799c.893-.492 1.708-.227 1.038.312L17.635 23.862h-.003l.003.001-.562 7.625c.824 0 1.188-.343 1.65-.748l3.961-3.494 8.24 5.52c1.52.76 2.61.37 2.989-1.275l5.409-23.12c.553-2.014-.848-2.926-2.297-2.33z" fill="#FAFAFA"/></svg>
